src/topics/icons/envato.svg

<svg height="97" preserveAspectRatio="xMidYMid" viewBox="0 0 512 97" width="512" xmlns="http://www.w3.org/2000/svg"><path d="m65.8980137 9.76509681c-2.5737514-1.42854715-9.9515402-.54525921-18.8125621 2.19766649-15.5080675 10.6004147-28.5965272 26.217534-29.5098763 51.29594-.1662961.5996252-1.6959001-.081549-1.998431-.2670331-4.1877827-8.0266633-5.8469057-16.4786608-2.3502111-28.6713604.6517526-1.0850818-1.4790756-2.4208869-1.8621962-2.0393654-.7675203.7687995-3.96712051 4.1772292-6.09219234 7.8632455-10.53357652 18.2727395-3.64508182 41.6859463 14.78403994 51.9323423 18.4252842 10.2623858 41.6923423 3.6425234 51.9515303-14.7881974 11.8687421-21.2724647.84811-63.6370269-6.1097814-67.52259839z" fill="#82b541"/><path d="m131.850394 19.974396c-21.846826 0-37.7044352 16.2413691-37.7044352 38.6190631 0 22.5612592 15.8163552 38.318451 38.4655592 38.318451 11.44021 0 20.497589-3.5772842 27.700767-10.9413217 2.151295-2.3230281 2.382831-4.561629 2.382831-5.4174141 0-3.6479601-2.712865-6.2978239-6.450689-6.2978239-1.883942 0-3.459917.7115553-5.267428 2.3828307-4.07873 3.8005047-9.450093 7.6828782-18.365481 7.6828782-12.397372 0-22.47971-9.3077826-23.114833-21.2606321h49.341961c5.365606 0 7.971977-2.5085121 7.971977-7.6668882 0-1.5187308 0-2.6146858-.305409-4.7768544-2.658178-19.1860887-15.611682-30.6397302-34.653541-30.6397302zm0 11.9800325c11.846356 0 19.448005 7.5495215 19.916831 19.7342261h-42.25519c1.109387-11.276792 10.643908-19.7342261 22.337719-19.7342261z"/><path d="m213.927096 19.974396c-9.924358 0-19.750536 5.7065134-23.589417 13.6321199v-4.8980587c0-7.5878975-5.880805-7.9722973-7.058628-7.9722973-3.484543 0-7.208615 2.0940512-7.208615 7.9722973v59.1598251c0 7.8795553 6.259768 8.2777065 7.514024 8.2777065s7.516902-.3981512 7.516902-8.2777065v-31.7139388c0-13.7987358 7.819433-23.4365521 19.014356-23.4365521 10.843143 0 16.116007 7.1158726 16.116007 21.7569619v33.393529c0 7.8795553 6.262646 8.2777065 7.516902 8.2777065s7.514024-.3981512 7.514024-8.2777065v-38.1137789c0-14.3958026-7.181432-29.7756302-27.335555-29.7756302z"/><path d="m309.272305 20.7374391c-3.473349 0-5.992415 2.0259338-7.492278 6.0119225l-20.564427 51.7116802-20.407405-51.7116802c-1.597722-4.0457913-4.097919-6.0119225-7.645142-6.0119225-4.14397 0-7.516582 3.2334991-7.516582 7.2089344 0 .984025.11161 2.2600275.94341 4.2530219l23.63291 55.8019238c2.816479 6.7317926 7.448464 8.1443498 10.839945 8.1443498 3.389242 0 8.024105-1.4125572 10.846021-8.1411518l23.786733-56.1121299c.812612-1.9683698.938294-3.4135466.938294-4.097599 0-4.0214866-3.16826-7.0563898-7.361479-7.0563898z"/><path d="m352.963398 19.974396c-9.613512 0-18.567276 2.6773666-25.208565 7.5332117-2.252352 1.5539089-3.348307 3.4925372-3.348307 5.9300538 0 3.3563023 2.562878 5.9872979 5.84019 5.9872979 1.417674 0 3.004522-.5644472 4.460252-1.5842898 5.709392-3.8059413 11.074998-5.580832 16.882249-5.580832 11.113054 0 17.492747 5.6518276 17.492747 15.5080675v1.6332192c-24.946968.027183-50.32055 3.04002-50.32055 24.7426159 0 15.6196777 13.348457 22.6130668 26.576989 22.6130668 10.535176 0 18.949117-4.174351 24.347343-12.0785309v3.8008245c0 5.6601424 3.800825 7.667208 7.061827 7.667208.686611 0 6.750341-.2155453 6.750341-7.667208v-39.7991256c0-17.9782036-11.417824-28.7094166-30.535795-28.7094166zm12.956382 40.4930918h3.162504v3.462476c0 12.6644047-8.06472 20.8464909-20.540762 20.8464909-3.386364 0-14.439296-.7879875-14.439296-10.9384435-.00032-11.985469 18.157931-13.3705234 31.817554-13.3705234z"/><path d="m422.647845 34.3945034c6.57637 0 6.908962-5.1174416 6.908962-6.1427208 0-3.0428982-1.815825-6.2955852-6.908962-6.2955852h-13.523068v-13.67849097c0-6.11010118-3.964242-8.27770643-7.361479-8.27770643-1.254256 0-7.514024.39815116-7.514024 8.27770643v64.95460337c0 14.9899913 7.394099 22.9130394 21.386314 22.9130394 3.620457 0 7.148812-.6408795 9.45489-1.7150881 2.645067-1.3194953 4.16092-3.489659 4.16092-5.9518001 0-3.4733492-2.519386-5.9924148-5.992735-5.9924148-.67094 0-1.624904.1662961-2.677366.468827-1.286876.3220387-2.159291.4470806-3.113574.4470806-5.692762 0-8.342946-3.7160775-8.342946-11.6963698v-37.3174766h13.523068z"/><path d="m472.344785 19.974396c-22.733312 0-39.226684 16.1134491-39.226684 38.312055 0 10.807965 3.996862 20.6584484 11.249289 27.735945 7.197742 7.0205721 17.132972 10.8869557 27.978674 10.8869557 22.449649 0 39.380187-16.6040225 39.380187-38.6222611-.00032-22.1989257-16.565966-38.312055-39.380187-38.312055zm0 64.1902811c-15.589617 0-23.741962-13.0190631-23.741962-25.8798251 0-17.6727945 12.307188-25.7212043 23.741962-25.7212043 11.434773 0 23.741961 8.0484098 23.741961 25.7212043 0 17.7821661-12.307188 25.8798251-23.741961 25.8798251z"/></svg>

<?xml version="1.0" encoding="UTF-8" standalone="no"?>
<svg width="512px" height="97px" viewBox="0 0 512 97" version="1.1" xmlns="http://www.w3.org/2000/svg" xmlns:xlink="http://www.w3.org/1999/xlink" preserveAspectRatio="xMidYMid">
	<g>
		<path d="M65.8980137,9.76509681 C63.3242623,8.33654966 55.9464735,9.2198376 47.0854516,11.9627633 C31.5773841,22.563178 18.4889244,38.1802973 17.5755753,63.2587033 C17.4092792,63.8583285 15.8796752,63.1771543 15.5771443,62.9916702 C11.3893616,54.9650069 9.7302386,46.5130094 13.2269332,34.3203098 C13.8786858,33.235228 11.7478576,31.8994229 11.364737,32.2809444 C10.5972167,33.0497439 7.39761649,36.4581736 5.27254466,40.1441899 C-5.26103186,58.4169294 1.62746284,81.8301362 20.0565846,92.0765322 C38.4818688,102.338918 61.7489269,95.7190556 72.0081149,77.2883348 C83.876857,56.0158701 72.8562249,13.6513079 65.8983335,9.76573641 L65.8980137,9.76509681 Z" fill="#82B541"></path>
		<path d="M131.850394,19.974396 C110.003568,19.974396 94.1459588,36.2157651 94.1459588,58.5934591 C94.1459588,81.1547183 109.962314,96.9119101 132.611518,96.9119101 C144.051728,96.9119101 153.109107,93.3346259 160.312285,85.9705884 C162.46358,83.6475603 162.695116,81.4089594 162.695116,80.5531743 C162.695116,76.9052142 159.982251,74.2553504 156.244427,74.2553504 C154.360485,74.2553504 152.78451,74.9669057 150.976999,76.6381811 C146.898269,80.4386858 141.526906,84.3210593 132.611518,84.3210593 C120.214146,84.3210593 110.131808,75.0132767 109.496685,63.0604272 L158.838646,63.0604272 C164.204252,63.0604272 166.810623,60.5519151 166.810623,55.393539 C166.810623,53.8748082 166.810623,52.7788532 166.505214,50.6166846 C163.847036,31.4305959 150.893532,19.9769544 131.851673,19.9769544 L131.850394,19.974396 Z M131.850394,31.9544285 C143.69675,31.9544285 151.298399,39.50395 151.767225,51.6886546 L109.512035,51.6886546 C110.621422,40.4118626 120.155943,31.9544285 131.849754,31.9544285 L131.850394,31.9544285 Z" fill="#000000"></path>
		<path d="M213.927096,19.974396 C204.002738,19.974396 194.17656,25.6809094 190.337679,33.6065159 L190.337679,28.7084572 C190.337679,21.1205597 184.456874,20.7361599 183.279051,20.7361599 C179.794508,20.7361599 176.070436,22.8302111 176.070436,28.7084572 L176.070436,87.8682823 C176.070436,95.7478376 182.330204,96.1459888 183.58446,96.1459888 C184.838716,96.1459888 191.101362,95.7478376 191.101362,87.8682823 L191.101362,56.1543435 C191.101362,42.3556077 198.920795,32.7177914 210.115718,32.7177914 C220.958861,32.7177914 226.231725,39.833664 226.231725,54.4747533 L226.231725,87.8682823 C226.231725,95.7478376 232.494371,96.1459888 233.748627,96.1459888 C235.002883,96.1459888 241.262651,95.7478376 241.262651,87.8682823 L241.262651,49.7545034 C241.262651,35.3587008 234.081219,19.9788732 213.927096,19.9788732 L213.927096,19.974396 Z" fill="#000000"></path>
		<path d="M309.272305,20.7374391 C305.798956,20.7374391 303.27989,22.7633729 301.780027,26.7493616 L281.2156,78.4610418 L260.808195,26.7493616 C259.210473,22.7035703 256.710276,20.7374391 253.163053,20.7374391 C249.019083,20.7374391 245.646471,23.9709382 245.646471,27.9463735 C245.646471,28.9303985 245.758081,30.206401 246.589881,32.1993954 L270.222791,88.0013192 C273.03927,94.7331118 277.671255,96.145669 281.062736,96.145669 C284.451978,96.145669 289.086841,94.7331118 291.908757,88.0045172 L315.69549,31.8923873 C316.508102,29.9240175 316.633784,28.4788407 316.633784,27.7947883 C316.633784,23.7733017 313.465524,20.7383985 309.272305,20.7383985 L309.272305,20.7374391 Z" fill="#000000"></path>
		<path d="M352.963398,19.974396 C343.349886,19.974396 334.396122,22.6517626 327.754833,27.5076077 C325.502481,29.0615166 324.406526,31.0001449 324.406526,33.4376615 C324.406526,36.7939638 326.969404,39.4249594 330.246716,39.4249594 C331.66439,39.4249594 333.251238,38.8605122 334.706968,37.8406696 C340.41636,34.0347283 345.781966,32.2598376 351.589217,32.2598376 C362.702271,32.2598376 369.081964,37.9116652 369.081964,47.7679051 L369.081964,49.4011243 C344.134996,49.4283073 318.761414,52.4411443 318.761414,74.1437402 C318.761414,89.7634179 332.109871,96.756807 345.338403,96.756807 C355.873579,96.756807 364.28752,92.582456 369.685746,84.6782761 L369.685746,88.4791006 C369.685746,94.139243 373.486571,96.1463086 376.747573,96.1463086 C377.434184,96.1463086 383.497914,95.9307633 383.497914,88.4791006 L383.497914,48.679975 C383.497914,30.7017714 372.08009,19.9705584 352.962119,19.9705584 L352.963398,19.974396 Z M365.91978,60.4674878 L369.082284,60.4674878 L369.082284,63.9299638 C369.082284,76.5943685 361.017564,84.7764547 348.541522,84.7764547 C345.155158,84.7764547 334.102226,83.9884672 334.102226,73.8380112 C334.101906,61.8525422 352.260157,60.4674878 365.91978,60.4674878 L365.91978,60.4674878 Z" fill="#000000"></path>
		<path d="M422.647845,34.3945034 C429.224215,34.3945034 429.556807,29.2770618 429.556807,28.2517826 C429.556807,25.2088844 427.740982,21.9561974 422.647845,21.9561974 L409.124777,21.9561974 L409.124777,8.27770643 C409.124777,2.16760525 405.160535,0 401.763298,0 C400.509042,0 394.249274,0.398151156 394.249274,8.27770643 L394.249274,73.2323098 C394.249274,88.2223011 401.643373,96.1453492 415.635588,96.1453492 C419.256045,96.1453492 422.7844,95.5044697 425.090478,94.4302611 C427.735545,93.1107658 429.251398,90.9406021 429.251398,88.478461 C429.251398,85.0051118 426.732012,82.4860462 423.258663,82.4860462 C422.587723,82.4860462 421.633759,82.6523423 420.581297,82.9548732 C419.294421,83.2769119 418.422006,83.4019538 417.467723,83.4019538 C411.774961,83.4019538 409.124777,79.6858763 409.124777,71.705584 L409.124777,34.3881074 L422.647845,34.3881074 L422.647845,34.3945034 Z" fill="#000000"></path>
		<path d="M472.344785,19.974396 C449.611473,19.974396 433.118101,36.0878451 433.118101,58.286451 C433.118101,69.094416 437.114963,78.9448994 444.36739,86.022396 C451.565132,93.0429681 461.500362,96.9093517 472.346064,96.9093517 C494.795713,96.9093517 511.726251,80.3053292 511.726251,58.2870906 C511.725931,36.0881649 495.160285,19.9750356 472.346064,19.9750356 L472.344785,19.974396 Z M472.344785,84.1646771 C456.755168,84.1646771 448.602823,71.145614 448.602823,58.284852 C448.602823,40.6120575 460.910011,32.5636477 472.344785,32.5636477 C483.779558,32.5636477 496.086746,40.6120575 496.086746,58.284852 C496.086746,76.0670181 483.779558,84.1646771 472.344785,84.1646771 L472.344785,84.1646771 Z" fill="#000000"></path>
	</g>
</svg>
